src/status/24/notification-disabled-60-symbolic.svg

<?xml version="1.0" encoding="UTF-8" standalone="no"?>
<svg
   xmlns:dc="http://purl.org/dc/elements/1.1/"
   xmlns:cc="http://creativecommons.org/ns#"
   xmlns:rdf="http://www.w3.org/1999/02/22-rdf-syntax-ns#"
   xmlns:svg="http://www.w3.org/2000/svg"
   xmlns="http://www.w3.org/2000/svg"
   height="24"
   width="24"
   version="1.1"
   id="svg6">
  <metadata
     id="metadata12">
    <rdf:RDF>
      <cc:Work
         rdf:about="">
        <dc:format>image/svg+xml</dc:format>
        <dc:type
           rdf:resource="http://purl.org/dc/dcmitype/StillImage" />
        <dc:title />
      </cc:Work>
    </rdf:RDF>
  </metadata>
  <defs
     id="defs10" />
  <path
     id="path2-6"
     d="M 6.3515625,4.7363281 5.4121094,5.6777344 13.537867,13.803687 v 0 H 12.237085 L 8.0332031,9.5996094 C 8.0198271,9.732866 8.0001481,9.8650714 8,10 c 0,0 -1.563e-4,5.000094 -1.6601562,5.621094 -0.016,0.011 -0.022063,0.03097 -0.039063,0.04297 -0.063381,0.04923 -0.1181601,0.108631 -0.1621093,0.175782 -0.018,0.027 -0.038734,0.04817 -0.052734,0.07617 C 6.0313172,16.018995 6.0018673,16.133447 6,16.25 6,16.363636 6.335,17 6.75,17 h 10.5 c 0.416,0 0.75,-0.334 0.75,-0.75 -0.0019,-0.116553 -0.03132,-0.231005 -0.08594,-0.333984 -0.014,-0.028 -0.03573,-0.05017 -0.05273,-0.07617 -0.04393,-0.06716 -0.09872,-0.126563 -0.162109,-0.175782 -0.016,-0.012 -0.02206,-0.03197 -0.03906,-0.04297 C 16.000151,15.001094 16,10 16,10 15.998,8.177 14.765,6.4647656 13,6.0097656 V 6 C 13,5.4477153 12.552285,5 12,5 11.447715,5 11,5.4477153 11,6 V 6.00977 C 10.180696,6.2215585 9.4837589,6.7100393 8.9648438,7.3496094 Z M 10.066406,18 c 0.227729,0.881993 1.022677,1.49868 1.933594,1.5 0.911645,-4.31e-4 1.707636,-0.617304 1.935547,-1.5 z"
     style="color:#bebebe;overflow:visible;opacity:1;isolation:auto;mix-blend-mode:normal;fill:#363636;marker:none" />
</svg>

<svg xmlns="http://www.w3.org/2000/svg" width="24" height="24">
    <path d="m6.352 4.736-.94.942 8.126 8.126h-1.3L8.032 9.6C8.02 9.733 8 9.865 8 10c0 0 0 5-1.66 5.621-.016.011-.022.031-.04.043a.726.726 0 0 0-.161.176c-.018.027-.04.048-.053.076A.738.738 0 0 0 6 16.25c0 .114.335.75.75.75h10.5c.416 0 .75-.334.75-.75a.738.738 0 0 0-.086-.334c-.014-.028-.036-.05-.053-.076a.725.725 0 0 0-.162-.176c-.016-.012-.022-.032-.039-.043C16 15.001 16 10 16 10c-.002-1.823-1.235-3.535-3-3.99V6a1 1 0 1 0-2 0v.01c-.82.212-1.516.7-2.035 1.34ZM10.066 18A2 2 0 0 0 12 19.5a2 2 0 0 0 1.936-1.5z" style="color:#bebebe;overflow:visible;isolation:auto;mix-blend-mode:normal;fill:#050505;opacity:.7;marker:none"/>
</svg>
